X:10
T:Valley Forge
C:Roy Watrous, 1948
S:The Watrous Book, 1992
M:C
L:1/8
Q:1/4=90
K:D
%%MIDI program 72
%%MIDI transpose 8
%%MIDI ratio 3 1
A2|B4-Bg/f/ e/d/c/B/|A4 {ABA}FA df|Bb/a/ g/f/e/d/|c/d/e/f/ gc|d6:|
cd|e2 e>e e2 A/c/e/g/|f2-fe d2 (3dfd|B2 c/d/e/f/ ge cB|A4-Aa/g/ f/e/d/c/|
B4-Bg/f/ e/d/c/B/|A4 {ABA}FA df|Bb/a/ g/f/e/d/ c/d/e/f/ gc|d6 z2|]

